X:1
T:Title
%%score { ( 1 4 ) | ( 2 3 ) }
L:1/8
Q:1/4=100
M:4/4
K:Eb
V:1 treble nm="Grand Piano"
V:4 treble 
V:2 bass 
V:3 bass 
V:1
 G2 G>G G2 [FA]2 | [GB]4 [Ge]4 | [Bd][Ac][GB][FA] [EG]2 .[CFA]2 | [Ac]4 B4 | G2 G>G G2 [FA]2 | %5
w: Wm.~W.~Bentley * * * *|||||
 [GB]4 [Ee]4 | [A,DF]2 [A,DF]>[G,E] [B,EG]2 [A,DF]2 | [G,E]6 z2 | [B,FA]3 [B,EG] [B,EG]2 [B,DF]2 | %9
w: ||||
 [B,GB]3 [B,FA] [B,FA]2 [B,EG]2 | [Ec]2 [B,EB]2 [B,DA]2 [B,EG]2 | [B,DF]6 z2 | %12
w: |||
 [G,E]3 [A,EF] [B,EG]2 [EGB]2 | [EGe]2 [EBd]2 [EBd]2 [EAc]2 | [GB]2 [Ge]2 [B,EG]2 [A,DF]2 | %15
w: |||
 [G,E]6 z2 |] %16
w: |
V:2
 [E,B,E]2 [E,B,E]>[E,B,E] [E,B,E]2 [E,E]2 | [E,E]4 [E,B,]4 | [B,,B,]2 [B,,B,][B,,B,] [B,,B,]2 z D | %3
 z4 G4 | [E,B,E]2 [E,B,E]>[E,B,E] [E,B,E]2 [E,E]2 | [E,E]4 [E,G,]4 | B,,2 B,,>B,, B,,2 B,,2 | %7
 E,6 z2 | B,,3 B,, B,,2 B,,2 | E,3 E, E,2 E,2 | A,2 G,2 F,2 E,2 | B,,6 z2 | E,3 E, E,2 E,2 | %13
 E,2 G,2 A,2 A,2 | B,2 B,2 B,,2 B,,2 | E,6 z2 |] %16
V:3
 x8 | x8 | z4 z2 B,,2 | E,8 | x8 | x8 | x8 | x8 | x8 | x8 | x8 | x8 | x8 | x8 | x8 | x8 |] %16
V:4
 x8 | x8 | x8 | E8 | x8 | x8 | x8 | x8 | x8 | x8 | x8 | x8 | x8 | x8 | x8 | x8 |] %16

